src/assets/premium_ribbon.svg

<svg width="310" height="46" xmlns="http://www.w3.org/2000/svg"><path d="M23 9v30l11 7H0l7-18L0 9h23Zm287 0-7 19 7 18h-34l11-7V9h23Zm-26-9v37H25V0h259Z" fill="#FF0571" fill-rule="evenodd"/></svg>

<?xml version="1.0" encoding="UTF-8"?>
<svg width="310px" height="46px" viewBox="0 0 310 46" version="1.1" xmlns="http://www.w3.org/2000/svg" xmlns:xlink="http://www.w3.org/1999/xlink">
    <g id="Page-1" stroke="none" stroke-width="1" fill="none" fill-rule="evenodd">
        <path d="M23,9 L23,39 L34,46 L0,46 L7,28 L0,9 L23,9 Z M310,9 L303,28 L310,46 L276,46 L287,39 L287,9 L310,9 Z M284,0 L284,37 L25,37 L25,0 L284,0 Z" fill="#EA3474"></path>
    </g>
</svg>
